X: 2
T: Abide With Me v.2
P: piffero secondo a0149
O: Dan Moylan
%R: march
F: http://ancients.sudburymuster.org/mus/col/pdf/hymnsF.pdf
Z: 2020 John Chambers <jc:trillian.mit.edu>
M: 4/4
L: 1/4
K: G
|:\
GG, DC | EG, B,D | CD EF | GG, DG, |\
GF ED | CG, DG, | AF GE | D4 |
GG, DC | EG, B,D | B,E FD | FE DC |\
CF DE | GD EE | DG, CD | B,4 :|
